X:1
T:Title
%%score ( 1 2 ) { 3 | ( 4 5 ) }
L:1/8
Q:1/4=96
M:4/4
K:Eb
V:1 treble nm="Bright Piano"
V:2 treble 
V:3 bass nm="Bright Piano"
V:4 bass 
V:5 bass 
V:1
 [EB]2 [DB]2 [EB]2 E2 | A2 z2 .G2 z2 | [EF]2 [DF]2 [DG]2 [CE]2 | z2 .A2 z4 | [EB]2 [DB]2 [EB]2 E2 | %5
w: Johann~Gottfried~Schickt * * *|||||
 A2 z2 .G2 z2 | [EF]2 [DF]2 [DG]2 [CE]2 | z2 .A2 z4 | [DB]2 [DF]2 [DG]2 [EG]2 | c2 B2 z4 | %10
w: |||||
 [Gc]2 [Gd]2 [Ge]2 c-[Fc] | B2 =A2 z4 | [Ee]2 [Gd][Ec] [EB]2 [FB]2 | [=Ec]2 [GB][FA] [_EG]2 [DF]2 | %14
w: ||||
 [EB]2 E2 [Ec]2 [GB][FA] | [EG]2 [DF]2 E4 |] %16
w: ||
V:2
 x8 | CD [EG]2 D-[DF] E2 | x8 | [EB]2 E-[EG] [DF]4 | x8 | CD [EG]2 D-[DF] E2 | x8 | %7
 [EB]2 E-[EG] [DF]4 | x8 | F3 =E [GB][F=A] [FA]2 | z4 z2 .G2 | F3 E [DB]4 | x8 | x8 | x8 | x8 |] %16
V:3
 G,2 B,A, G,2 B,2 | A,2 B,2 B,A, G,2 | =A,2 B,C =B,2 G,2 | B,2 C2 D4 | G,2 B,A, G,2 B,2 | %5
 A,2 B,2 B,A, G,2 | =A,2 B,C =B,2 G,2 | B,2 C2 D4 | B,2 B,2 G,2[K:treble] C2 | C2 C2 C2 C2 | %10
 C4 C2[K:bass] G,=A, | B,2 C2 B,4 | G,2 B,A, G,2 F,2 | G,2 C2 B,2 z2 | B,2 C2 C2 C2 | %15
 B,2 B,A, G,4 |] %16
V:4
 E,2 B,,2 E,2 G,2 | F,2 E,2 B,,2 C,2 | C,2 B,,A,, G,,2 C,2 | G,,2 A,,=A,, B,,4 | E,2 B,,2 E,2 G,2 | %5
 F,2 E,2 B,,2 C,2 | C,2 B,,A,, G,,2 C,2 | G,,2 A,,=A,, B,,4 | G,,2 B,,2 =B,,2 C,_B,, | %9
 =A,,2 C,2 F,2 F,2 | E,2 z =B, C,2 E,2 | D,2 F,2 B,,4 | C,2 .G,2 E,2 _D,2 | z4 z2 B,2 | %14
 G,2 A,2 A,,2 F,,2 | G,,A,, B,,2 E,4 |] %16
V:5
 x8 | x8 | x8 | x8 | x8 | x8 | x8 | x8 | x8 | x8 | z2 D,2 z4 | x8 | x8 | C,2 =E,F, G,A, z A, | x8 | %15
 x8 |] %16

